<?xml version="1.0" encoding="UTF-8"?>
<map version="1.10" tiledversion="1.12.2" orientation="orthogonal" renderorder="right-down" width="40" height="30" tilewidth="32" tileheight="32" infinite="0" nextlayerid="2" nextobjectid="1">
 <tileset firstgid="1" source="../tiles/ForestGround.tsx"/>
 <layer id="1" name="Tile Layer 1" width="40" height="30">
  <data encoding="csv">
44,25,25,25,25,25,25,25,25,25,25,25,25,25,25,25,25,25,25,25,25,25,25,25,25,25,25,25,25,25,25,25,25,25,25,25,25,25,25,45,
44,44,25,25,25,25,25,25,25,25,25,25,25,25,25,25,25,25,25,25,25,44,44,44,44,44,25,25,44,44,25,25,25,25,25,25,25,25,45,45,
44,44,25,25,25,25,25,25,25,25,25,25,25,25,25,25,44,44,44,44,44,44,44,44,44,44,44,44,44,44,44,25,25,25,25,25,25,25,45,45,
44,44,44,44,25,25,25,25,45,25,45,44,44,44,44,44,44,44,44,44,44,25,44,44,44,44,44,44,44,44,44,44,44,44,44,25,44,44,45,45,
44,44,44,45,25,25,25,25,25,25,44,44,44,44,44,44,44,44,44,44,44,44,44,44,44,44,25,25,44,44,44,44,25,25,44,44,44,44,44,45,
25,25,25,25,25,25,25,25,25,25,25,44,44,44,44,44,44,44,44,44,44,44,44,44,44,25,44,44,44,25,44,44,44,44,44,44,44,44,44,45,
44,44,25,25,25,25,25,25,45,44,44,44,44,44,44,44,44,44,44,44,44,44,44,44,44,44,25,25,25,44,44,44,44,44,44,44,44,44,44,44,
44,44,25,25,25,25,25,25,25,25,25,25,44,44,44,44,44,44,44,44,44,44,44,44,45,44,44,44,44,44,44,44,44,44,44,44,44,44,44,44,
44,44,45,45,25,25,25,25,25,25,25,25,44,44,44,44,44,44,44,44,44,44,44,44,44,44,44,44,44,44,44,44,44,44,44,44,44,44,44,44,
44,45,45,25,25,25,25,25,25,25,44,44,44,44,44,44,44,44,44,44,44,44,44,44,44,44,44,44,44,44,44,44,44,44,44,44,44,44,44,44,
44,45,45,25,25,25,25,25,25,44,44,44,44,44,44,44,44,44,44,44,44,44,44,44,44,44,44,44,44,44,44,44,44,44,44,44,44,44,44,44,
44,45,25,25,45,25,25,25,44,44,44,44,44,44,44,44,44,44,44,44,44,44,44,44,44,44,44,44,44,44,44,44,44,44,44,44,44,44,44,44,
44,45,25,25,45,25,25,25,25,25,25,44,44,44,44,44,44,44,44,44,44,44,44,44,44,44,45,44,44,44,44,44,44,44,44,44,44,44,44,25,
44,45,25,25,45,25,25,25,25,25,44,44,44,44,44,44,44,44,44,44,44,44,44,44,44,44,44,44,44,44,44,44,44,44,44,44,44,44,44,45,
44,45,25,25,45,25,25,25,25,25,25,25,45,44,44,45,44,44,44,44,45,44,44,44,44,44,44,44,44,44,44,44,44,44,44,44,44,44,44,45,
44,45,25,25,45,25,25,25,45,25,25,25,44,44,44,44,44,44,44,45,45,44,44,44,44,44,44,44,44,44,44,44,44,44,44,44,44,44,44,45,
44,45,45,25,25,25,25,25,45,25,25,44,44,44,44,44,44,45,44,44,44,44,44,44,44,44,44,44,44,44,44,44,44,44,44,44,44,44,44,44,
44,45,45,25,25,25,25,25,45,25,44,44,44,44,44,44,44,44,44,44,44,44,44,44,44,44,44,44,44,44,44,44,44,44,44,44,44,44,44,44,
44,45,45,25,25,25,25,44,44,44,44,44,44,45,45,45,45,45,45,45,44,44,44,44,44,44,44,44,44,44,45,44,44,44,44,44,44,44,44,44,
44,44,45,25,25,25,44,44,44,44,44,44,44,44,45,45,44,44,44,44,44,44,44,44,44,44,44,44,44,44,44,44,44,44,44,44,44,44,44,44,
44,44,44,25,25,25,44,44,45,25,44,44,44,44,44,44,44,44,44,44,44,44,44,44,44,44,44,44,44,44,44,44,44,44,44,44,44,44,44,44,
44,44,44,45,25,25,25,25,44,44,44,44,44,44,44,44,44,44,44,44,44,44,45,45,45,44,44,44,44,44,44,44,44,44,44,44,44,44,44,44,
44,44,44,45,25,25,25,25,44,44,44,44,44,44,44,44,44,44,44,44,45,45,45,45,44,44,44,44,44,44,44,44,44,44,44,44,44,44,44,44,
44,44,44,44,44,44,44,44,44,44,44,44,44,44,44,44,44,44,44,44,44,44,44,44,44,44,44,44,44,44,44,44,44,44,44,44,44,44,44,44,
45,45,45,45,25,25,25,25,45,45,45,44,44,44,44,44,44,44,44,44,44,44,44,44,44,44,44,44,44,44,44,44,44,44,44,44,44,44,44,44,
45,45,45,45,45,25,25,45,45,45,45,45,45,45,45,45,45,45,45,45,45,45,45,45,44,44,44,45,45,45,45,44,44,45,44,44,44,44,44,44,
44,45,45,45,45,25,25,45,45,45,45,45,45,45,45,45,45,45,45,45,45,45,44,44,44,44,44,45,45,45,44,44,45,44,44,44,44,44,44,44,
45,45,45,45,45,25,45,45,45,45,45,45,45,45,45,45,45,45,45,45,45,45,45,45,45,45,44,44,44,44,45,44,44,45,45,44,44,44,44,44,
45,45,45,45,45,25,45,45,45,45,45,45,45,45,45,45,45,45,45,45,45,45,45,45,45,45,45,45,45,45,45,45,45,45,44,44,44,44,44,44,
45,45,45,45,45,45,45,45,45,45,45,45,45,45,45,45,45,45,45,45,45,45,45,45,45,45,45,45,45,45,45,45,45,45,44,45,45,44,45,45
</data>
 </layer>
</map>
